img/catalog/catalog green/catalog2..svg

<svg width="285" height="285" viewBox="0 0 285 285" fill="none" xmlns="http://www.w3.org/2000/svg">
<path fill-rule="evenodd" clip-rule="evenodd" d="M205.273 125.181C209.088 127.2 212.913 129.225 215.942 132.344C216.031 132.456 216.093 132.588 216.121 132.728C216.15 132.869 216.144 133.014 216.105 133.152C216.066 133.29 215.994 133.417 215.896 133.521C215.799 133.626 215.677 133.706 215.542 133.754L213.092 134.514C212.909 134.585 212.705 134.585 212.522 134.514H212.442C208.855 135.603 205.363 136.984 202.002 138.644C199.01 140.092 196.392 142.21 194.352 144.834C193.356 146.135 192.724 147.678 192.522 149.304C192.407 150.967 192.727 152.632 193.452 154.134C194.555 156.563 196.316 158.647 198.073 160.727C200.649 163.774 203.216 166.812 203.692 170.914C203.72 171.048 203.713 171.187 203.671 171.318C203.63 171.448 203.555 171.566 203.454 171.659C203.353 171.752 203.23 171.817 203.096 171.847C202.962 171.878 202.823 171.873 202.692 171.834L197.442 170.404L186.722 167.484L181.242 165.994C179.766 165.434 178.187 165.199 176.612 165.304C173.792 165.784 173.542 169.144 173.542 171.444C173.552 175.134 173.732 178.824 174.002 182.504C174.132 184.304 174.292 186.164 174.482 187.914C174.563 188.661 174.661 189.406 174.758 190.152C174.889 191.153 175.02 192.155 175.112 193.164C175.295 194.426 175.15 195.714 174.692 196.904C174.398 197.559 173.927 198.117 173.331 198.517C172.735 198.917 172.039 199.141 171.322 199.164C169.823 199.117 168.366 198.657 167.112 197.834C166.468 197.467 165.833 197.086 165.198 196.704C164.342 196.191 163.485 195.676 162.602 195.194C161.062 194.354 159.482 193.554 157.872 192.844C156.562 192.2 155.152 191.788 153.702 191.624C152.998 191.532 152.283 191.596 151.607 191.812C150.931 192.028 150.311 192.391 149.792 192.874C148.864 193.928 148.181 195.175 147.792 196.524C146.552 199.774 145.252 202.974 143.792 206.124C142.332 209.274 140.752 212.424 139.052 215.424C138.966 215.58 138.878 215.752 138.786 215.932C138.21 217.056 137.466 218.511 136.052 218.554C134.615 218.598 134.092 217.222 133.655 216.074C133.593 215.911 133.533 215.753 133.472 215.604C130.97 209.499 127.543 203.816 123.312 198.754C121.282 196.334 118.972 194.084 115.972 193.004C113.029 192.134 109.948 191.832 106.892 192.114C103.743 192.385 100.581 192.472 97.4219 192.374C96.7256 192.394 96.0362 192.232 95.4219 191.904C95.1429 191.693 94.9299 191.407 94.8077 191.079C94.6855 190.752 94.6592 190.396 94.7319 190.054C95.0231 188.437 95.4823 186.855 96.1019 185.334C96.2742 184.848 96.454 184.352 96.6367 183.849C98.4369 178.89 100.505 173.193 98.1719 168.254L98.0118 167.944C97.915 167.91 97.827 167.854 97.7544 167.782C97.6817 167.709 97.6262 167.621 97.5919 167.524C97.2569 166.749 96.7538 166.058 96.1191 165.501C95.4844 164.944 94.7339 164.535 93.9219 164.304C92.0969 163.801 90.1807 163.726 88.3219 164.084C87.0003 164.249 85.7111 164.479 84.4336 164.707C83.7004 164.837 82.9712 164.967 82.2419 165.084C78.1419 165.724 74.0218 166.194 69.8818 166.534C69.4018 166.614 69.1219 166.014 69.2319 165.614C69.9163 163.147 71.6144 161.182 73.2819 159.253C73.4661 159.04 73.6499 158.827 73.8319 158.614C74.7386 157.611 75.5364 156.515 76.2119 155.344C76.8719 154.124 77.4819 152.494 77.0019 151.124C76.5938 149.959 75.1732 149.315 74.0193 148.791C73.8163 148.699 73.6215 148.611 73.4419 148.524C71.9874 147.837 70.4911 147.243 68.9619 146.744C67.4056 146.241 65.8191 145.837 64.2119 145.534C63.3248 145.364 62.4318 145.245 61.5393 145.127C60.8019 145.029 60.0648 144.931 59.3319 144.804C58.5898 144.769 57.8739 144.519 57.2718 144.084C57.0824 143.827 56.9869 143.513 57.0015 143.195C57.016 142.876 57.1398 142.572 57.3519 142.334C58.1226 141.207 59.0256 140.176 60.0419 139.264C62.1337 137.424 64.3673 135.753 66.7219 134.264C66.9407 134.117 67.162 133.969 67.3847 133.821C69.5231 132.393 71.7978 130.875 73.3918 128.864C74.3518 127.817 74.8929 126.454 74.9119 125.034C74.8192 123.737 73.8463 122.865 72.9082 122.025C72.7329 121.867 72.5588 121.711 72.3918 121.554L64.3119 114.224C63.9183 113.867 63.5134 113.516 63.1072 113.164C62.1927 112.371 61.2721 111.573 60.4619 110.694C59.9748 110.203 59.5876 109.622 59.3219 108.984C59.0679 108.398 59.0117 107.745 59.1619 107.124C59.1714 107.07 59.1928 107.019 59.2246 106.974C59.2563 106.929 59.2976 106.892 59.3454 106.865C59.3933 106.839 59.4465 106.823 59.5012 106.819C59.5559 106.815 59.6108 106.824 59.6619 106.844C59.9983 106.511 60.3784 106.225 60.7919 105.994C61.5606 105.54 62.3751 105.168 63.2219 104.884C64.1832 104.543 65.161 104.254 66.138 103.965C67.0209 103.704 67.9031 103.443 68.7718 103.144C72.6516 101.81 76.4062 100.137 79.9919 98.144C81.7777 97.3019 83.4289 96.1999 84.8918 94.874C86.1048 93.4365 86.9371 91.7172 87.3119 89.874C88.4078 85.756 88.7466 81.4731 88.3119 77.234C88.1714 75.8868 87.8964 74.5844 87.6248 73.2983C87.4711 72.5701 87.3184 71.847 87.1919 71.124C86.9619 69.744 86.8419 66.734 88.8419 66.624C90.5219 66.534 92.2319 67.734 93.4619 68.734C93.9141 69.1026 94.3558 69.4837 94.7964 69.8639C95.7784 70.711 96.7551 71.5538 97.8319 72.244C101.012 74.364 105.032 76.194 108.932 75.674C112.237 75.1062 115.228 73.371 117.362 70.784C120.449 67.3413 122.18 63.0879 123.912 58.8327C125.052 56.0303 126.193 53.2271 127.722 50.654C127.785 50.5492 127.871 50.4606 127.974 50.3953C128.078 50.33 128.195 50.2899 128.317 50.2783C128.438 50.2666 128.561 50.2836 128.675 50.3281C128.788 50.3725 128.89 50.443 128.972 50.534C129.249 50.1487 129.587 49.811 129.972 49.534C130.457 49.1905 131.048 49.0311 131.64 49.0842C132.232 49.1374 132.786 49.3996 133.202 49.824C133.675 50.337 134.054 50.9294 134.322 51.574C134.642 52.254 134.982 52.914 135.322 53.574C136.761 56.3417 138.433 58.9813 140.322 61.464C142.216 63.9378 144.32 66.2431 146.612 68.354C147.702 69.364 148.982 70.454 150.532 70.534C152.146 70.4553 153.692 69.8593 154.942 68.834C157.756 66.9029 160.299 64.6248 162.843 62.3457C164.91 60.4939 166.977 58.6416 169.192 56.974C170.41 56.0097 171.7 55.1405 173.052 54.374C173.374 54.154 173.751 54.0272 174.141 54.0078C174.531 53.9884 174.919 54.0771 175.262 54.264C175.5 54.4448 175.7 54.6716 175.85 54.9309C175.999 55.1903 176.095 55.477 176.132 55.774C176.373 57.4526 176.44 59.1516 176.332 60.844C176.272 62.604 176.112 64.364 175.952 66.114C175.422 71.824 175.012 77.854 178.012 83.004C179.405 85.3156 181.591 87.0426 184.162 87.864C185.724 88.3575 187.313 88.7615 188.922 89.074C190.672 89.464 192.432 89.824 194.192 90.174C197.705 90.8674 201.232 91.474 204.772 91.994C205.018 92.0348 205.267 92.0676 205.517 92.1005C206.614 92.2453 207.719 92.3911 208.632 93.214C209.752 94.224 209.442 95.624 208.632 96.744C206.764 99.0654 204.637 101.166 202.292 103.004C199.995 104.859 198.042 107.103 196.522 109.634C195.766 110.964 195.166 112.377 194.732 113.844C194.312 115.254 193.862 116.854 194.862 118.144C195.781 119.223 196.852 120.163 198.042 120.934C199.195 121.757 200.394 122.515 201.632 123.204C202.827 123.887 204.05 124.534 205.273 125.181ZM182.932 125.074C183.581 122.453 183.963 119.772 184.072 117.074H184.022C184.387 112.537 183.692 107.977 181.992 103.754C180.214 99.9753 177.231 96.894 173.512 94.994C169.433 92.9414 164.938 91.8534 160.372 91.814C157.849 91.7456 155.324 91.8324 152.812 92.074C151.608 92.1343 150.412 92.2881 149.232 92.534C148.325 92.73 147.471 93.1226 146.732 93.684C146.682 93.7295 146.622 93.7624 146.556 93.7803C146.491 93.7981 146.423 93.8003 146.356 93.7866C146.29 93.773 146.228 93.7439 146.175 93.7017C146.122 93.6596 146.08 93.6056 146.052 93.544C145.423 93.8219 144.809 94.1323 144.212 94.474C142.978 95.2454 141.798 96.1008 140.682 97.034C139.694 97.9161 138.495 98.529 137.202 98.814C135.777 98.9388 134.355 98.5407 133.202 97.694C132.322 97.1589 131.461 96.5892 130.6 96.0193C129.241 95.1195 127.881 94.2193 126.442 93.454C124.01 92.1978 121.336 91.4783 118.602 91.344C115.768 91.1008 112.92 91.0674 110.082 91.244C107.277 91.4866 104.567 92.384 102.172 93.864C99.9595 95.2678 97.8778 96.8675 95.9519 98.644C94.1218 100.249 92.423 101.998 90.8719 103.874C89.2894 105.763 87.896 107.803 86.7119 109.964C85.9455 111.376 85.2772 112.84 84.7119 114.344L84.7116 114.347C84.6217 115.256 84.5318 116.165 84.4519 117.084C84.1619 120.084 83.9319 123.084 83.8719 126.084C83.7555 130.03 84.1181 133.975 84.9519 137.834C85.277 139.533 85.8926 141.164 86.7718 142.654C87.6531 143.989 88.9343 145.011 90.4319 145.574C93.0301 146.629 95.9095 146.605 98.6858 146.581C99.0938 146.577 99.4995 146.574 99.9018 146.574L112.082 146.504C112.197 146.507 112.309 146.541 112.407 146.601C112.505 146.662 112.585 146.748 112.639 146.849C112.693 146.951 112.718 147.065 112.714 147.18C112.709 147.295 112.674 147.407 112.612 147.504C112.527 147.623 112.443 147.741 112.358 147.859C111.921 148.469 111.486 149.077 111.092 149.714C110.084 151.195 109.506 152.925 109.422 154.714C109.448 156.501 109.696 158.278 110.162 160.004C110.913 163.199 112.024 166.299 113.472 169.244C114.918 172.185 116.707 174.944 118.802 177.464C119.849 178.724 120.971 179.919 122.162 181.044C123.372 182.348 124.888 183.331 126.572 183.904C128.336 184.289 130.136 184.48 131.942 184.474C133.892 184.604 135.792 184.604 137.792 184.604C141.313 184.635 144.803 183.937 148.042 182.554C151.036 181.211 153.499 178.91 155.042 176.014C155.829 174.453 156.498 172.835 157.042 171.174C157.672 169.344 158.292 167.504 158.802 165.644C159.891 162.209 160.232 158.581 159.802 155.004C159.364 151.915 157.907 149.061 155.662 146.894C155.576 146.797 155.512 146.681 155.477 146.556C155.442 146.43 155.436 146.299 155.459 146.171C155.482 146.043 155.534 145.922 155.611 145.816C155.687 145.711 155.787 145.625 155.902 145.564C158.109 144.688 160.428 144.129 162.792 143.904C163.614 143.811 164.449 143.74 165.288 143.668C168.605 143.385 171.991 143.096 174.912 141.444C176.373 140.598 177.633 139.445 178.603 138.063C179.574 136.682 180.232 135.105 180.532 133.444C180.449 133.35 180.391 133.237 180.361 133.115C180.332 132.993 180.332 132.866 180.362 132.744C180.74 131.432 181.211 130.149 181.772 128.904C182.223 127.648 182.611 126.37 182.932 125.074ZM167.452 100.064C162.202 97.7545 156.329 97.2721 150.772 98.694C147.897 99.376 145.109 100.382 142.462 101.694C142.109 101.866 141.755 102.044 141.4 102.224L141.399 102.224C139.204 103.332 136.94 104.475 134.462 104.174C133.024 103.92 131.619 103.508 130.272 102.944C128.904 102.453 127.5 102.068 126.072 101.794C123.1 101.289 120.084 101.094 117.072 101.214C115.73 101.214 114.388 101.308 113.046 101.401C112.688 101.426 112.33 101.451 111.972 101.474C110.206 101.506 108.45 101.752 106.742 102.204C104.251 102.952 102.13 104.528 100.043 106.078C99.3396 106.601 98.6402 107.12 97.9319 107.604C97.8155 107.682 97.7139 107.78 97.6319 107.894C97.5592 107.891 97.4869 107.904 97.4196 107.932C97.3523 107.959 97.2918 108.001 97.242 108.054C96.4805 108.884 95.8952 109.861 95.5219 110.924C95.3415 111.457 95.2109 112.006 95.1319 112.564C95.0842 112.869 95.0542 113.176 95.0419 113.484C95.0173 113.636 95.0173 113.792 95.0419 113.944C95.1312 114.271 95.3376 114.553 95.6215 114.737C95.9055 114.922 96.2473 114.995 96.582 114.944C96.8715 114.932 97.1578 114.878 97.4319 114.784C98.0062 114.575 98.5737 114.339 99.1419 114.103L99.1421 114.103L99.1422 114.103C99.7712 113.842 100.401 113.58 101.042 113.354C102.262 112.924 103.652 112.514 104.972 112.164C107.563 111.498 110.2 111.03 112.862 110.764C115.521 110.504 118.197 110.463 120.862 110.644C123.332 110.814 125.962 111.054 127.742 112.974C129.283 114.889 130.343 117.145 130.832 119.554C131.489 122.09 131.885 124.687 132.012 127.304C132.195 130.47 132.132 133.636 132.069 136.8C132.029 138.813 131.989 140.824 132.012 142.834V143.394C132.012 143.565 132.011 143.74 132.01 143.919C131.998 145.844 131.983 148.217 133.282 149.754C134.822 151.584 137.512 150.884 138.842 149.204C139.578 148.168 140.079 146.984 140.312 145.734C140.632 144.354 140.932 142.974 141.222 141.594C141.822 138.767 142.345 135.921 142.792 133.054C143.242 130.224 143.602 127.384 143.902 124.534C143.979 123.784 144.038 123.027 144.097 122.269C144.23 120.57 144.363 118.863 144.702 117.204C144.842 116.138 145.201 115.112 145.757 114.191C146.313 113.27 147.053 112.474 147.932 111.854C150.073 110.701 152.436 110.019 154.862 109.854C161.45 109.058 168.132 110.028 174.222 112.664C174.427 112.713 174.643 112.683 174.828 112.582C175.013 112.48 175.153 112.313 175.222 112.114C176.942 106.794 171.822 102.104 167.452 100.064ZM109.961 120.472C110.515 120.259 111.113 120.184 111.702 120.254C113.044 120.307 114.317 120.86 115.272 121.804C116.019 122.556 116.508 123.526 116.668 124.574C116.828 125.622 116.651 126.693 116.162 127.634C115.652 128.491 114.932 129.203 114.069 129.702C113.205 130.201 112.229 130.47 111.232 130.484C110.195 130.502 109.177 130.213 108.303 129.655C107.43 129.096 106.741 128.292 106.322 127.344C105.522 125.174 106.912 122.894 108.522 121.474C108.913 121.028 109.407 120.684 109.961 120.472ZM162.332 121.134C161.684 120.896 161.014 120.722 160.332 120.614C159.582 120.458 158.813 120.421 158.052 120.504C157.337 120.595 156.667 120.902 156.132 121.384C155.641 121.877 155.242 122.452 154.952 123.084C154.888 123.19 154.863 123.315 154.881 123.437C154.899 123.559 154.96 123.672 155.052 123.754C154.921 124.121 154.824 124.499 154.762 124.884C154.533 125.938 154.462 127.02 154.552 128.094C154.592 128.634 154.781 129.152 155.097 129.591C155.412 130.03 155.843 130.374 156.342 130.584C157.565 131.026 158.884 131.133 160.162 130.894C161.287 130.729 162.343 130.248 163.205 129.506C164.067 128.764 164.701 127.792 165.032 126.704C165.302 125.659 165.232 124.556 164.832 123.554C164.61 122.997 164.273 122.493 163.842 122.076C163.411 121.659 162.896 121.338 162.332 121.134ZM144.472 157.964C142.887 156.72 140.978 155.956 138.972 155.764C136.786 155.35 134.549 155.279 132.342 155.554C129.995 155.907 127.78 156.861 125.912 158.324C124.292 159.604 122.602 162.254 124.242 164.164C124.287 164.212 124.341 164.25 124.401 164.276C124.461 164.302 124.526 164.316 124.592 164.316C124.658 164.316 124.722 164.302 124.783 164.276C124.843 164.25 124.897 164.212 124.942 164.164C125.1 164.517 125.294 164.852 125.522 165.164C126.806 166.659 128.612 167.607 130.572 167.814C134.867 168.55 139.283 168.047 143.302 166.364C144.135 166.096 144.871 165.589 145.418 164.906C145.966 164.224 146.301 163.395 146.382 162.524C146.434 161.668 146.289 160.812 145.957 160.022C145.626 159.231 145.118 158.527 144.472 157.964Z" fill="#333F48"/>
<path d="M114.322 232.7V236.18C114.322 245.228 113.194 246.5 111.202 246.5C110.962 246.5 110.794 246.476 110.626 246.452L110.386 249.5C110.842 249.62 111.73 249.716 112.33 249.716C116.17 249.716 117.778 247.196 117.778 237.308V236.036H122.626V249.5H126.322V232.7H114.322ZM141.94 236.636H138.508L133.492 244.148V236.636H129.964V249.5H133.396L138.412 242.012V249.5H141.94V236.636ZM155.134 252.524H158.206L158.638 246.38H156.886V236.636H153.238V246.38H148.846V236.636H145.198V249.5H155.134V252.524ZM166.932 249.788C170.94 249.788 173.916 246.788 173.916 243.092C173.916 239.348 170.964 236.396 166.98 236.396C162.972 236.396 159.996 239.396 159.996 243.092C159.996 246.836 162.948 249.788 166.932 249.788ZM166.98 246.644C164.964 246.644 163.596 244.988 163.596 243.092C163.596 241.148 164.844 239.54 166.932 239.54C168.948 239.54 170.316 241.196 170.316 243.092C170.316 245.036 169.068 246.644 166.98 246.644Z" fill="#333F48"/>
</svg>

<svg width="285" height="285" fill="none" xmlns="http://www.w3.org/2000/svg"><path fill-rule="evenodd" clip-rule="evenodd" d="M205.273 125.181c3.815 2.019 7.64 4.044 10.669 7.163a.904.904 0 0 1-.046 1.177.887.887 0 0 1-.354.233l-2.45.76a.79.79 0 0 1-.57 0h-.08a68.535 68.535 0 0 0-10.44 4.13 21.618 21.618 0 0 0-7.65 6.19 9.225 9.225 0 0 0-1.83 4.47 9.59 9.59 0 0 0 .93 4.83c1.103 2.429 2.864 4.513 4.621 6.593 2.576 3.047 5.143 6.085 5.619 10.187a.792.792 0 0 1-1 .92l-5.25-1.43-10.72-2.92-5.48-1.49a10.99 10.99 0 0 0-4.63-.69c-2.82.48-3.07 3.84-3.07 6.14.01 3.69.19 7.38.46 11.06.13 1.8.29 3.66.48 5.41.081.747.179 1.492.276 2.238.131 1.001.262 2.003.354 3.012a7.44 7.44 0 0 1-.42 3.74 3.83 3.83 0 0 1-3.37 2.26 8.137 8.137 0 0 1-4.21-1.33 94.145 94.145 0 0 1-1.914-1.13c-.856-.513-1.713-1.028-2.596-1.51-1.54-.84-3.12-1.64-4.73-2.35a12.679 12.679 0 0 0-4.17-1.22 4.827 4.827 0 0 0-3.91 1.25 9.513 9.513 0 0 0-2 3.65c-1.24 3.25-2.54 6.45-4 9.6-1.46 3.15-3.04 6.3-4.74 9.3-.086.156-.174.328-.266.508-.576 1.124-1.32 2.579-2.734 2.622-1.437.044-1.96-1.332-2.397-2.48-.062-.163-.122-.321-.183-.47a64.289 64.289 0 0 0-10.16-16.85c-2.03-2.42-4.34-4.67-7.34-5.75a24.187 24.187 0 0 0-9.08-.89 81.114 81.114 0 0 1-9.47.26 4.002 4.002 0 0 1-2-.47 1.84 1.84 0 0 1-.69-1.85c.291-1.617.75-3.199 1.37-4.72.172-.486.352-.982.535-1.485 1.8-4.959 3.868-10.656 1.535-15.595l-.16-.31a.693.693 0 0 1-.42-.42 5.702 5.702 0 0 0-3.67-3.22 12.312 12.312 0 0 0-5.6-.22c-1.322.165-2.61.395-3.888.623-.734.13-1.463.26-2.192.377-4.1.64-8.22 1.11-12.36 1.45-.48.08-.76-.52-.65-.92.684-2.467 2.382-4.432 4.05-6.361.184-.213.368-.426.55-.639a19.132 19.132 0 0 0 2.38-3.27c.66-1.22 1.27-2.85.79-4.22-.408-1.165-1.829-1.809-2.983-2.333-.203-.092-.398-.18-.577-.267a38.33 38.33 0 0 0-4.48-1.78 38.846 38.846 0 0 0-4.75-1.21c-.887-.17-1.78-.289-2.673-.407a56.537 56.537 0 0 1-2.207-.323 3.825 3.825 0 0 1-2.06-.72 1.392 1.392 0 0 1 .08-1.75 17.076 17.076 0 0 1 2.69-3.07 53.01 53.01 0 0 1 6.68-5l.663-.443c2.138-1.428 4.413-2.946 6.007-4.957a5.781 5.781 0 0 0 1.52-3.83c-.093-1.297-1.066-2.169-2.004-3.009-.175-.158-.35-.314-.516-.471l-8.08-7.33a71.07 71.07 0 0 0-1.205-1.06c-.914-.793-1.835-1.591-2.645-2.47a5.348 5.348 0 0 1-1.14-1.71 2.94 2.94 0 0 1-.16-1.86.37.37 0 0 1 .5-.28 5.236 5.236 0 0 1 1.13-.85 12.751 12.751 0 0 1 2.43-1.11c.961-.341 1.939-.63 2.916-.919a62.643 62.643 0 0 0 2.634-.821 69.833 69.833 0 0 0 11.22-5 19.996 19.996 0 0 0 4.9-3.27 11.22 11.22 0 0 0 2.42-5 35.191 35.191 0 0 0 1-12.64c-.14-1.347-.416-2.65-.687-3.936-.154-.728-.307-1.451-.433-2.174-.23-1.38-.35-4.39 1.65-4.5 1.68-.09 3.39 1.11 4.62 2.11.452.369.894.75 1.334 1.13.982.847 1.96 1.69 3.036 2.38 3.18 2.12 7.2 3.95 11.1 3.43a14 14 0 0 0 8.43-4.89c3.087-3.443 4.818-7.696 6.55-11.951 1.14-2.803 2.281-5.606 3.81-8.179a.784.784 0 0 1 .595-.376.78.78 0 0 1 .655.256 4.387 4.387 0 0 1 1-1 2.499 2.499 0 0 1 3.23.29 5.953 5.953 0 0 1 1.12 1.75c.32.68.66 1.34 1 2a54.702 54.702 0 0 0 5 7.89 53.966 53.966 0 0 0 6.29 6.89c1.09 1.01 2.37 2.1 3.92 2.18a7.532 7.532 0 0 0 4.41-1.7c2.814-1.931 5.357-4.21 7.901-6.488 2.067-1.852 4.134-3.704 6.349-5.372a30.264 30.264 0 0 1 3.86-2.6 2.117 2.117 0 0 1 2.21-.11 2.252 2.252 0 0 1 .87 1.51c.241 1.679.308 3.378.2 5.07-.06 1.76-.22 3.52-.38 5.27-.53 5.71-.94 11.74 2.06 16.89a11.138 11.138 0 0 0 6.15 4.86c1.562.493 3.151.897 4.76 1.21 1.75.39 3.51.75 5.27 1.1a218.97 218.97 0 0 0 11.325 1.926c1.097.145 2.202.291 3.115 1.114 1.12 1.01.81 2.41 0 3.53a39.091 39.091 0 0 1-6.34 6.26 25.195 25.195 0 0 0-5.77 6.63 20.001 20.001 0 0 0-1.79 4.21c-.42 1.41-.87 3.01.13 4.3a14.618 14.618 0 0 0 3.18 2.79 37.927 37.927 0 0 0 3.59 2.27c1.195.683 2.418 1.33 3.641 1.977Zm-22.341-.107a40.007 40.007 0 0 0 1.14-8h-.05a29.363 29.363 0 0 0-2.03-13.32 18.85 18.85 0 0 0-8.48-8.76 29.802 29.802 0 0 0-13.14-3.18 61.548 61.548 0 0 0-7.56.26c-1.204.06-2.4.214-3.58.46a6.352 6.352 0 0 0-2.5 1.15.427.427 0 0 1-.376.103.43.43 0 0 1-.304-.243c-.629.278-1.243.588-1.84.93a31.688 31.688 0 0 0-3.53 2.56 7.722 7.722 0 0 1-3.48 1.78 5.89 5.89 0 0 1-4-1.12 80.716 80.716 0 0 1-2.602-1.675c-1.359-.9-2.719-1.8-4.158-2.565a19.13 19.13 0 0 0-7.84-2.11 57.723 57.723 0 0 0-8.52-.1 18 18 0 0 0-7.91 2.62 43.718 43.718 0 0 0-6.22 4.78 45.63 45.63 0 0 0-5.08 5.23 37.676 37.676 0 0 0-4.16 6.09 34.987 34.987 0 0 0-2 4.38v.003c-.09.909-.18 1.818-.26 2.737-.29 3-.52 6-.58 9a48.817 48.817 0 0 0 1.08 11.75c.325 1.699.94 3.33 1.82 4.82a7.583 7.583 0 0 0 3.66 2.92c2.598 1.055 5.477 1.031 8.254 1.007.408-.004.813-.007 1.216-.007l12.18-.07a.656.656 0 0 1 .557.345.657.657 0 0 1-.027.655l-.254.355c-.437.61-.872 1.218-1.266 1.855a9.693 9.693 0 0 0-1.67 5c.026 1.787.274 3.564.74 5.29a43.504 43.504 0 0 0 3.31 9.24 41.5 41.5 0 0 0 5.33 8.22 40.746 40.746 0 0 0 3.36 3.58 10.734 10.734 0 0 0 4.41 2.86c1.764.385 3.564.576 5.37.57 1.95.13 3.85.13 5.85.13a25.53 25.53 0 0 0 10.25-2.05 14.792 14.792 0 0 0 7-6.54 34.84 34.84 0 0 0 2-4.84c.63-1.83 1.25-3.67 1.76-5.53a25.24 25.24 0 0 0 1-10.64 14.004 14.004 0 0 0-4.14-8.11.862.862 0 0 1-.051-1.078.851.851 0 0 1 .291-.252 25.127 25.127 0 0 1 6.89-1.66c.822-.093 1.657-.164 2.496-.236 3.317-.283 6.703-.572 9.624-2.224a11.626 11.626 0 0 0 5.62-8 .776.776 0 0 1-.17-.7 28.659 28.659 0 0 1 1.41-3.84 39.273 39.273 0 0 0 1.16-3.83Zm-15.48-25.01a25.64 25.64 0 0 0-16.68-1.37 38.96 38.96 0 0 0-8.31 3c-.353.172-.707.35-1.062.53h-.001c-2.195 1.108-4.459 2.251-6.937 1.95a19.735 19.735 0 0 1-4.19-1.23 28.117 28.117 0 0 0-4.2-1.15 43.408 43.408 0 0 0-9-.58c-1.342 0-2.684.094-4.026.187-.358.025-.716.05-1.074.073a22.003 22.003 0 0 0-5.23.73c-2.491.748-4.612 2.324-6.699 3.874a65.607 65.607 0 0 1-2.111 1.526 1.175 1.175 0 0 0-.3.29.499.499 0 0 0-.39.16 8.327 8.327 0 0 0-1.72 2.87 9.09 9.09 0 0 0-.39 1.64 8.025 8.025 0 0 0-.09.92 1.443 1.443 0 0 0 0 .46 1.377 1.377 0 0 0 1.54 1c.29-.012.576-.066.85-.16.574-.209 1.142-.445 1.71-.681.63-.261 1.259-.523 1.9-.749 1.22-.43 2.61-.84 3.93-1.19a52.763 52.763 0 0 1 7.89-1.4 48.464 48.464 0 0 1 8-.12c2.47.17 5.1.41 6.88 2.33a15.374 15.374 0 0 1 3.09 6.58 38.308 38.308 0 0 1 1.18 7.75c.183 3.166.12 6.332.057 9.496-.04 2.013-.08 4.024-.057 6.034v.56l-.002.525c-.012 1.925-.027 4.298 1.272 5.835 1.54 1.83 4.23 1.13 5.56-.55a8.763 8.763 0 0 0 1.47-3.47c.32-1.38.62-2.76.91-4.14.6-2.827 1.123-5.673 1.57-8.54.45-2.83.81-5.67 1.11-8.52.077-.75.136-1.507.195-2.265.133-1.699.266-3.406.605-5.065a7.794 7.794 0 0 1 3.23-5.35 17.057 17.057 0 0 1 6.93-2 37.435 37.435 0 0 1 19.36 2.81.852.852 0 0 0 1-.55c1.72-5.32-3.4-10.01-7.77-12.05Zm-57.491 20.408a3.652 3.652 0 0 1 1.741-.218 5.38 5.38 0 0 1 3.57 1.55 5.002 5.002 0 0 1 .89 5.83 5.834 5.834 0 0 1-4.93 2.85 5.272 5.272 0 0 1-4.91-3.14c-.8-2.17.59-4.45 2.2-5.87.391-.446.885-.79 1.439-1.002Zm52.371.662a10.619 10.619 0 0 0-2-.52 7.304 7.304 0 0 0-2.28-.11 3.535 3.535 0 0 0-1.92.88 5.887 5.887 0 0 0-1.18 1.7.533.533 0 0 0 .1.67 6.375 6.375 0 0 0-.29 1.13 10.852 10.852 0 0 0-.21 3.21 2.934 2.934 0 0 0 1.79 2.49 7.294 7.294 0 0 0 3.82.31 6 6 0 0 0 4.87-4.19c.27-1.045.2-2.148-.2-3.15a4.24 4.24 0 0 0-2.5-2.42Zm-17.86 36.83a10.535 10.535 0 0 0-5.5-2.2 21.407 21.407 0 0 0-6.63-.21 13.742 13.742 0 0 0-6.43 2.77c-1.62 1.28-3.31 3.93-1.67 5.84a.479.479 0 0 0 .7 0c.158.353.352.688.58 1a7.726 7.726 0 0 0 5.05 2.65c4.295.736 8.711.233 12.73-1.45a4.462 4.462 0 0 0 2.116-1.458 4.463 4.463 0 0 0 .964-2.382 5.594 5.594 0 0 0-1.91-4.56Z" fill="#333F48"/><path d="M114.322 232.7v3.48c0 9.048-1.128 10.32-3.12 10.32a3.7 3.7 0 0 1-.576-.048l-.24 3.048c.456.12 1.344.216 1.944.216 3.84 0 5.448-2.52 5.448-12.408v-1.272h4.848V249.5h3.696v-16.8h-12Zm27.618 3.936h-3.432l-5.016 7.512v-7.512h-3.528V249.5h3.432l5.016-7.488v7.488h3.528v-12.864Zm13.194 15.888h3.072l.432-6.144h-1.752v-9.744h-3.648v9.744h-4.392v-9.744h-3.648V249.5h9.936v3.024Zm11.798-2.736c4.008 0 6.984-3 6.984-6.696 0-3.744-2.952-6.696-6.936-6.696-4.008 0-6.984 3-6.984 6.696 0 3.744 2.952 6.696 6.936 6.696Zm.048-3.144c-2.016 0-3.384-1.656-3.384-3.552 0-1.944 1.248-3.552 3.336-3.552 2.016 0 3.384 1.656 3.384 3.552 0 1.944-1.248 3.552-3.336 3.552Z" fill="#333F48"/></svg>
